X:1567
T:Näckens polska e. A. A. Afzelius
R:Polska
M:3/4
L:1/16
K:Dm
Z:Robert Boström
D:CD: Forsmark Tre "Västgötalåtar" FMPCD-001 (1992)
B:Jämför [[http://www.smus.se/earkiv/fmk/browselarge.php?lang=sw&katalogid=M+19&bildnr=00041|SMUS - katalog M19 bild 41]] (nr 137) efter [[Personer/Johan August Ericsson]] från [[Platser/Södermanland]]
B:Jämför [[http://www.smus.se/earkiv/fmk/browselarge.php?lang=sw&katalogid=M+26&bildnr=00026|SMUS - katalog M26 bild 26]] (nr 132) efter [[Personer/Abraham Hagholm]]
B:Jämför [[http://www.smus.se/earkiv/fmk/browselarge.php?lang=sw&katalogid=M+165&bildnr=00008|SMUS - katalog M165 bild 8]] (nr 12)
B:Jämför [[http://www.smus.se/earkiv/fmk/browselarge.php?lang=sw&katalogid=Upprop+26e&bildnr=00030|SMUS - katalog Upprop 26e bild 30]] från [[Platser/Småland]] (med text)
B:Jämför [[http://www.smus.se/earkiv/fmk/browselarge.php?lang=sw&katalogid=Upprop+26a&bildnr=00009|SMUS - katalog Upprop 26a bild 9]] (med text)
B:Jämför [[http://www.smus.se/earkiv/fmk/browselarge.php?lang=sw&katalogid=MMD+24&bildnr=00045|SMUS - katalog MMD24 bild 45]]
B:Jämför [[http://www.smus.se/earkiv/fmk/browselarge.php?lang=sw&katalogid=Vs+4&bildnr=00021|SMUS - katalog Vs4 bild 21]] efter [[Personer/Jan Erik Hammarberg]]
B:Jämför [[http://www.smus.se/earkiv/fmk/browselarge.php?lang=sw&katalogid=MMD+53&bildnr=00005|SMUS - katalog MMD53 bild 5]] "Necken Polonesse".
B:Jämför [[http://www.smus.se/earkiv/fmk/browselarge.php?lang=sw&katalogid=%C5n+1&bildnr=00075|SMUS - katalog Ån1 bild 75]] nr 130
B:Jämför [[http://www.smus.se/earkiv/fmk/browselarge.php?lang=sw&katalogid=Ske+21&bildnr=00060|SMUS - katalog Ske21 bild 60]] nr 21 efter [[Personer/John Enninger]]
B:Jämför [[http://www.smus.se/earkiv/fmk/browselarge.php?lang=sw&katalogid=Svldiv+2%3A36&bildnr=00004|SMUS - katalog Svldiv 2:36 bild 4]]
B:Jämför [[http://www.smus.se/earkiv/fmk/browselarge.php?lang=sw&katalogid=MMD+66&bildnr=00068|SMUS - katalog MMD66 bild 68]] nr 31
B:Jämför [[http://www.smus.se/earkiv/fmk/browselarge.php?lang=sw&katalogid=Upprop+22&bildnr=00049|SMUS - katalog Upprop22 bild 49]] nr 130
B:Jämför [[http://www.smus.se/earkiv/fmk/browselarge.php?lang=sw&katalogid=M+31&bildnr=00006|SMUS - katalog M31 bild 6]] nr 16
B:Jämför [[http://www.smus.se/earkiv/fmk/browselarge.php?lang=sw&katalogid=Sm+18&bildnr=00051|SMUS - katalog Sm18 bild 51]]
B:Jämför [[http://www.smus.se/earkiv/fmk/browselarge.php?lang=sw&katalogid=MMD+65&bildnr=00069|SMUS - katalog MMD65 bild 69]]
B:Jämför [[http://www.smus.se/earkiv/fmk/browselarge.php?lang=sw&katalogid=M+147&bildnr=00007|SMUS - katalog M147 bild 7]] nr 12
B:Jämför [[http://www.sormlandsmusikarkiv.se/noter/widmark/widmarksnotbok.html|notbok]] efter [[Personer/August Widmark]] (s. 9)
B:Jämför [[http://www.smus.se/earkiv/fmk/browselarge.php?lang=sw&katalogid=M+22b&bildnr=00044|SMUS - katalog M22b bild 44]] nr 44
B:Jämför [[http://www.sls.fi/faksimil.php?id=16&page=454|nr 979]]a-d i [[Notböcker/Äldre dansmelodier]] från [[Platser/Finland]].
Q:1/4=105
N:Se även SvL Medelpad nr 230 och nr 105
%%score (T1) (B1)
V:T1  clef=treble
V:B1 clef=treble % clef=bass   %octave=+2 %middle=d %octave=-2
%%MIDI program 1 57 %   53=Choir Oohs  19 = Church Organ 56=trumpet
%%MIDI program 2 53
[V:T1]|:"Dm"D3F A4 ^c4|"Dm/C"e3f d2d2 c2A2|"Dm/B"A2A2 F4 A3G|"Dm/A"E2F2 "Dm"D4 z4 :|
[V:B1]|:A,3D F4 F2EF|G3A F2F2 E2E2|F2EF D2A,=B, C3=B,|=B,2C2 A,4 z4:|
[V:T1]|:"Dm"F2F2 A2A2 c3A|"G"G2G2 G2FG "Am"A4 |"F"F2F2 A2A2 c3A|"A/E"G2G2 "A/D"AGFG "A/C#"A4|
[V:B1]|:D2D2 F2E2 D3C|=B,2B,2 B,2A,B, C4|C2C2 F2F2 A3F|E2E2 FEDF E4|
[V:T1]"Dm"F3A "G"G4 A3G |"Am"E3F "Dm"D6 d2|"Dm"^c2d2 A2F2 A2G2 |"A"E2EF "Bb"D6 d2|
[V:B1]D3C =B,2A,B, C3C|C=B,A,G, A,6 A,2|E2F2 D4 C2D2|A,4B,4z4|
[V:T1]"Dm"^c2d2"G" A2F2 A2G2|"A"E2EF "Dm"D6 E2:|
[V:B1]E2F2 D4 C2D2 |A,2A,2 A,4 z4:|
(:musicend:)
[[!Andrastämma]]n är plankad från skivan av mig med resarvation för grava fel.
(:music:)
